!!!COM: Genvino, Francesco
!!!CDT:
!!!PTL: Libro secondo di madrigali a cinque voci
!!!PPP: Naples
!!!PPR: Sottile
!!!PDT: 1605
!!!PUB-format:
!!!RISM: G 1586
!!!rime: 614
!!!OTL: Al vostro dolce azzurro
!!!AGN: Madrigal
!!!SCT: Trm0614j
!!!SCA: Trm0614j
!!!original-voices: 5
!!!extant-voices: 5
!!!complete: Y
!!!final: C
**kern	**text	**kern	**text	**kern	**text	**kern	**text	**kern	**text
*part5	*part5	*part4	*part4	*part3	*part3	*part2	*part2	*part1	*part1
*staff5	*staff5	*staff4	*staff4	*staff3	*staff3	*staff2	*staff2	*staff1	*staff1
*I"Basso	*	*I"Quinto	*	*I"Tenore	*	*I"Alto	*	*I"Canto	*
*I'B	*	*I'V	*	*I'T	*	*I'A	*	*I'C	*
*oclefF4	*	*oclefC3	*	*oclefC3	*	*oclefC2	*	*oclefG2	*
*clefF4	*	*clefGv2	*	*clefGv2	*	*clefG2	*	*clefG2	*
*k[]	*	*k[]	*	*k[]	*	*k[]	*	*k[]	*
*omet(C)	*	*omet(C)	*	*omet(C)	*	*omet(C)	*	*omet(C)	*
*M4/2	*	*M4/2	*	*M4/2	*	*M4/2	*	*M4/2	*
=1	=1	=1	=1	=1	=1	=1	=1	=1	=1
0r	.	1r	.	0r	.	2r	.	4cc	Al
.	.	.	.	.	.	.	.	4.cc	dol-
.	.	.	.	.	.	4g	Al	.	.
.	.	.	.	.	.	.	.	8b	-ce
.	.	.	.	.	.	4.g	dol-	8dd	vo-
.	.	.	.	.	.	.	.	8dd	-stro a-
.	.	4r	.	.	.	.	.	2ee	-zu-
.	.	.	.	.	.	8e	-ce	.	.
.	.	8c	Ce-	.	.	8g	vo-	.	.
.	.	8e	-da,	.	.	8g	-stro a-	.	.
.	.	4f	lu-	.	.	2a	-zu-	4cc	-ro
.	.	8f	-ci	.	.	.	.	8cc	Ce-
.	.	8c	se-	.	.	.	.	8ee	-da,
=2	=2	=2	=2	=2	=2	=2	=2	=2	=2
2r	.	2e	-re-	4r	.	1g	-ro	4gg	lu-
.	.	.	.	4c	Qual	.	.	8gg	-ci
.	.	.	.	.	.	.	.	8cc	se-
4r	.	2d	-ne,	8B	più	.	.	2dd	-re-
.	.	.	.	8B	bel	.	.	.	.
8G	Ce-	.	.	8B	ne-	.	.	.	.
8B	-da,	.	.	8G	-ro I-	.	.	.	.
4c	lu-	4r	.	2.A	-ta-	4r	.	2cc	-ne,
8c	-ci	4f	Qual	.	.	8f	Ce-	.	.
8F	se-	.	.	.	.	8a	-da,	.	.
2A	-re-	8e	più	.	.	4cc	lu-	4r	.
.	.	8e	bel	.	.	.	.	.	.
.	.	8e	ne-	4A	-lia in	8cc	-ci	4cc	Qual
.	.	8c	-ro I-	.	.	8f	se-	.	.
=3	=3	=3	=3	=3	=3	=3	=3	=3	=3
2.G	-ne,	2d	-ta-	4B	pre-	4g	-re-	8b	più
.	.	.	.	.	.	.	.	8b	bel
.	.	.	.	4G	-gio	4g	-ne,	8b	ne-
.	.	.	.	.	.	.	.	8g	-ro I-
.	.	2A	-lia	2d	tie-	2r	.	4a	-ta-
4F	Qual	.	.	.	.	.	.	4a	-lia in
8E	più	4r	.	2G	-ne,	4r	.	4b	pre-
8E	bel	.	.	.	.	.	.	.	.
8E	ne-	4e	in	.	.	4cc	Qual	4g	-gio
8C	-ro I-	.	.	.	.	.	.	.	.
4D	-ta-	4f	pre-	2r	.	8a	più	2dd	tie-
.	.	.	.	.	.	8a	bel	.	.
4D	-lia in	4d	-gio	.	.	8a	ne-	.	.
.	.	.	.	.	.	8f#X	-ro I-	.	.
=4	=4	=4	=4	=4	=4	=4	=4	=4	=4
4E	pre-	1.g	tie-	4c	Al	2g	-ta-	4cc	-ne,
4C	-gio	.	.	4.c	dol-	.	.	4ee	Qual
2G	tie-	.	.	.	.	4g	-lia,	4dd	più,
.	.	.	.	8B	-ce	.	.	.	.
.	.	.	.	8d	vo-	8g	Ce-	4ff	<Qual
.	.	.	.	8d	-stro a-	8b	-da,	.	.
4C	-ne,	.	.	2e	-zu-	4cc	lu-	8ee	più>
.	.	.	.	.	.	.	.	8ee	bel
4E	in	.	.	.	.	8cc	-ci	8ee	ne-
.	.	.	.	.	.	8g	se-	8cc	-ro I-
4F	pre-	2f	-ne,	2d	-ro	4a	-re-	4dd	-ta-
4D	-gio	.	.	.	.	8gL	.	4b	-lia in
.	.	.	.	.	.	8fJ	.	.	.
=5	=5	=5	=5	=5	=5	=5	=5	=5	=5
2A	tie-	4r	.	4r	.	4e	.	4cc	pre-
.	.	4A	in	8c	Ce-	4e	-ne,	4a	-gio
.	.	.	.	8e	-da,	.	.	.	.
2G	-ne,	4B-X	pre-	4g	lu-	4r	.	1dd	tie-
.	.	4G	-gio	8g	-ci	4b-X	Qual	.	.
.	.	.	.	8d	se-	.	.	.	.
2r	.	2d	tie-	2.f	-re-	8a	più	.	.
.	.	.	.	.	.	8a	bel	.	.
.	.	.	.	.	.	8a	ne-	.	.
.	.	.	.	.	.	8f	-ro I-	.	.
4C	Al	2G	-ne,	.	.	[2g	-ta-	2cc	-ne,
[4C	dol-	.	.	4e	-ne,	.	.	.	.
=6	=6	=6	=6	=6	=6	=6	=6	=6	=6
8C]	.	4d	Al	4r	.	4g]	.	1r	.
8BB	-ce	.	.	.	.	.	.	.	.
8D	vo-	4.d	dol-	4f	Qual	4f	-lia in	.	.
8D	-stro a-	.	.	.	.	.	.	.	.
2E	-zu-	.	.	8e	più	4.g	pre-	.	.
.	.	8c	-ce	8e	bel	.	.	.	.
.	.	8e	vo-	8e	ne-	.	.	.	.
.	.	8e	-stro a-	8c	-ro I-	8e	-gio	.	.
2D	-ro	2f	-zu-	4d	-ta-	2a	tie-	4r	.
.	.	.	.	4A	-lia in	.	.	8dd	Ce-
.	.	.	.	.	.	.	.	8ff	-da,
4r	.	2e	-ro	4B	pre-	2g	-ne,	4gg	lu-
8E	Ce-	.	.	4G	-gio	.	.	8gg	-ci
8G	-da,	.	.	.	.	.	.	8ee	se-
=7	=7	=7	=7	=7	=7	=7	=7	=7	=7
4A	lu-	4r	.	2c	tie-	2r	.	4ff	-re-
8A	-ci	8A	Ce-	.	.	.	.	4ee	-ne,
8E	se-	8c	-da,	.	.	.	.	.	.
2F	-re-	4d	lu-	4A	-ne,	4r	.	4r	.
.	.	8d	-ci	4a	Qual	4d	in	4dd	Qual
.	.	8A	se-	.	.	.	.	.	.
4E	-ne,	2c	-re-	8g	più	4.e	pre-	8cc	più
.	.	.	.	8g	bel	.	.	8cc	bel
4c	Qual	.	.	8g	ne-	.	.	8cc	ne-
.	.	.	.	8e	-ro I-	8c	-gio	8a	-ro I-
8B	più	4G	-ne,	4d	-ta-	2g	ti-	4b	-ta-
8B	bel	.	.	.	.	.	.	.	.
8B	ne-	4g	Qual	4d	-lia	.	.	4b	-lia in
8G	-ro I-	.	.	.	.	.	.	.	.
=8	=8	=8	=8	=8	=8	=8	=8	=8	=8
2A	-ta-	8e	più	4r	.	4c	-ne,	4cc	pre-
.	.	8e	bel	.	.	.	.	.	.
.	.	8e	ne-	4A	in	4cc	Qual	4a	-gio
.	.	8c	-ro I-	.	.	.	.	.	.
2G	-lia	4.d	-ta-	4B	pre-	8b	più	1dd	tie-
.	.	.	.	.	.	8b	bel	.	.
.	.	.	.	4G	-gio	8b	ne-	.	.
.	.	8e	-lia in	.	.	8g	-ro I-	.	.
4r	.	4f	pre-	2d	tie-	8a	-ta-	.	.
.	.	.	.	.	.	8a	-lia in	.	.
4D	in	4d	-gio	.	.	4b	pre-	.	.
4E	pre-	[2g	tie-	4.G	-ne,	4g	-gio	8cc	-ne,
.	.	.	.	.	.	.	.	8dd	in
4C	-gio	.	.	.	.	[4cc	tie-	[4ee	pre-
.	.	.	.	8A	<in	.	.	.	.
=9	=9	=9	=9	=9	=9	=9	=9	=9	=9
1G	tie-	1g]	.	4B	pre-	4cc]	.	4ee]	.
.	.	.	.	4G	-gio	8bL	.	4dd	-gio
.	.	.	.	.	.	8aJ	.	.	.
.	.	.	.	2d	tie-	2b	.	2gg	tie-
1C	-ne.	1g	-ne.	1c	-ne.>	1cc	-ne.	1ee	-ne.
=10	=10	=10	=10	=10	=10	=10	=10	=10	=10
2r	.	2r	.	2r	.	2r	.	2r	.
2c	Oc-	2.g	Oc-	2e	Oc-	2.cc	Oc-	2gg	Oc-
2c	-chi,	.	.	2g	-chi,	.	.	2ee	-chi,
.	.	4e	-chi,	.	.	4cc	-chi,	.	.
2r	.	4r	.	2r	.	4r	.	4r	.
.	.	[4e	cie-	.	.	[4g	ciel-	[4b	cie-
=11	=11	=11	=11	=11	=11	=11	=11	=11	=11
1r	.	8e]	.	1r	.	8g]	.	8b]	.
.	.	8e	-lo	.	.	8g	-lo	8b	-lo
.	.	4e	d'a-	.	.	4cc	d'a-	4ee	d'a-
.	.	2g	-mo-	.	.	2cc	-mo-	2ee	-mo-
2r	.	2G	-re,	4r	.	2b	-re,	2dd	-re,
.	.	.	.	2g	Lu-	.	.	.	.
4r	.	2r	.	.	.	2r	.	2r	.
[4A	Lu-	.	.	8c	-ci	.	.	.	.
.	.	.	.	8c	di	.	.	.	.
=12	=12	=12	=12	=12	=12	=12	=12	=12	=12
4A]	.	2.e	Lu-	4.c	que-	2cc	Lu-	4r	.
8E	-ci	.	.	.	.	.	.	2gg	Lu-
8E	di	.	.	8e	-sto	.	.	.	.
2.E	que-	.	.	1e	co-	8g	-ci	.	.
.	.	.	.	.	.	8g	di	.	.
.	.	8B	-ci	.	.	2g	que-	8ee	-ci
.	.	8B	di	.	.	.	.	8ee	di
.	.	4B	que-	.	.	.	.	4ee	que-
4D	-sto	2d	-sto	.	.	4a	-sto	4ff	-sto
2E	co-	.	.	2e	-re,	2a	co-	2ee	co-
.	.	[4c	.	.	.	.	.	.	.
=13	=13	=13	=13	=13	=13	=13	=13	=13	=13
2E	-re,	4c]	.	2r	.	2g#X	-re,	2ee	-re,
.	.	4B	.	.	.	.	.	.	.
2G	Oc-	2B	.	2g	Oc-	2b	Oc-	4r	.
.	.	.	.	.	.	.	.	2dd	Oc-
2G	-chi,	2d	.	2g	-chi,	2b	-chi,	.	.
.	.	.	.	.	.	.	.	4dd	-chi,
4r	.	4r	.	4r	.	4r	.	4r	.
[4BB	ciel-	[4d	.	[4g	cie-	[4b	cie-	[4gg	cie-
=14	=14	=14	=14	=14	=14	=14	=14	=14	=14
8BB]	.	8d]L	.	8g]	.	8b]	.	8gg]	.
8BB	-lo	8BJ	.	8d	-lo	8b	-lo	8gg	-lo
4E	d'a-	4c	.	4e	d'a-	4g	d'a-	4cc	d'a-
2D	-mo-	2A	.	2f#X	-mo-	2a	-mo-	2dd	-mo-
2D	-re,	2A	.	2f#i	-re,	2a	-re,	2dd	-re,
4r	.	4r	.	4r	.	4r	.	4r	.
[4E	<cie-	[4e	.	[4G	<cie-	[4g	<cie-	[4b	<cie-
=15	=15	=15	=15	=15	=15	=15	=15	=15	=15
8E]	.	8e]L	.	8G]	.	8g]	.	8b]	.
8E	-lo	8eJ	.	8B	-lo	8g	-lo	8ee	-lo
4A	d'a-	4e	.	4c	d'a-	4a	d'a-	4cc	d'a-
2G	-mo-	2g	.	2d	-mo-	2b	-mo-	2gg	-mo-
2G	-re,>	2g	.	2d	-re,>	2b	-re,>	4gg	-re,>
.	.	.	.	.	.	.	.	2gg	Lu-
2r	.	2r	.	2r	.	4r	.	.	.
.	.	.	.	.	.	[4b	Lu-	8dd	-ci
.	.	.	.	.	.	.	.	8dd	di
=16	=16	=16	=16	=16	=16	=16	=16	=16	=16
2r	.	4r	.	1r	.	4b]	.	4.dd	que-
.	.	2a	Lu-	.	.	8f#X	-ci	.	.
.	.	.	.	.	.	8f#i	di	8dd	-sto
4r	.	.	.	.	.	2.f#i	que-	2.dd	co-
2B	Lu-	8d	-ci	.	.	.	.	.	.
.	.	8d	di	.	.	.	.	.	.
.	.	4d	que-	4r	.	.	.	.	.
8E	-ci	4e	-sto	2e	Lu-	4g	-sto	2b	-re,
8E	di	.	.	.	.	.	.	.	.
[2E	que-	2e	co-	.	.	[2g	co-	.	.
.	.	.	.	8B	-ci	.	.	[4ee	<Lu-
.	.	.	.	8B	di	.	.	.	.
=17	=17	=17	=17	=17	=17	=17	=17	=17	=17
4E]	.	0ryy	.	4B	que-	1g]	.	4ee]	.
4G	-sto	.	.	4B	-sto	.	.	8b	-ci
.	.	.	.	.	.	.	.	8b	di
1C	co-	.	.	1c	co-	.	.	4ee	que-
.	.	.	.	.	.	.	.	4gg	-sto
.	.	.	.	.	.	1g	-re,	2cc	co-
2C	-re,	.	.	2G	-re,	.	.	2cc	-re,>
=18	=18	=18	=18	=18	=18	=18	=18	=18	=18
0r	.	0ryy	.	2r	.	2r	.	4ee	Son
.	.	.	.	.	.	.	.	4b	gl'al-
.	.	.	.	4a	Son	4cc	Son	4cc	-tr'oc-
.	.	.	.	4e	gl'al-	4g	gl'al-	8cc#X	-ch'ap-
.	.	.	.	.	.	.	.	8cc#i	-po
.	.	.	.	4f	-tr'oc-	4a	-tr'oc-	2dd	voi,
.	.	.	.	8f#X	-ch'ap-	8a	-ch'ap-	.	.
.	.	.	.	8f#i	-po	8a	-po	.	.
.	.	.	.	2g	voi,	2b	voi,	4r	.
.	.	.	.	.	.	.	.	8dd	ap-
.	.	.	.	.	.	.	.	8dd	-po
=19	=19	=19	=19	=19	=19	=19	=19	=19	=19
4A	Son	0ryy	.	4c	<Son	2r	.	2ee	voi,
4E	gl'al-	.	.	4G	gl'al-	.	.	.	.
4F	-tr'oc-	.	.	4A	-tr'oc-	4dd	<Son	2r	.
8F#X	-ch'ap-	.	.	8A	-chi ap-	4a	gl'al-	.	.
8F#i	-po	.	.	8A	-po	.	.	.	.
2G	voi	.	.	2d	voi>	4b	-tr'oc-	4gg	Son
.	.	.	.	.	.	8b	-chi ap-	4dd	gl'al-
.	.	.	.	.	.	8b	-po	.	.
[2C	not-	.	.	2r	.	2cc	voi>	4ee	-tr'oc-
.	.	.	.	.	.	.	.	8ee	-ch'ap-
.	.	.	.	.	.	.	.	8ee	-po
=20	=20	=20	=20	=20	=20	=20	=20	=20	=20
2C]	.	0ryy	.	2r	.	2cc	not-	2ff#X	voi
4BB	-te et	.	.	4r	.	4g	-te et	1gg	not-
4BB	in-	.	.	4g	not-	4g	in-	.	.
1AA	-fer-	.	.	4c	-te et	[1a	-fer-	.	.
.	.	.	.	4c	in-	.	.	.	.
.	.	.	.	[2d	-fer-	.	.	4ffnXi	-te et
.	.	.	.	.	.	.	.	4ff	in-
=21	=21	=21	=21	=21	=21	=21	=21	=21	=21
1AA	-no.	2A	-fer-	2d]	.	2a]	.	2ee	-fer-
.	.	2A	-no.	2c#X	-no.	2e	-no.	2ee	-no.
4r	.	4G	A-	1r	.	2r	.	2r	.
4C	A-	4c	-zu-	.	.	.	.	.	.
4F	-zu-	4A	-ro è il	.	.	4r	.	4f	A-
4D	-ro è il	4d	ciel	.	.	4f	A-	4b-X	-zu-
=22	=22	=22	=22	=22	=22	=22	=22	=22	=22
4.A	ciel	4f	e-	2r	.	4cc	-zu-	4a	-ro è il
.	.	4.e	-ter-	.	.	4a	-ro è	4.ee	ciel
8c	e-	.	.	.	.	.	.	.	.
1.G	-ter-	.	.	4G	A-	4.b	ciel	.	.
.	.	16dL	.	.	.	.	.	8gg	e-
.	.	16cJ	.	.	.	.	.	.	.
.	.	2B	.	4d	-zu-	.	.	2dd	-ter-
.	.	.	.	.	.	8dd	e-	.	.
.	.	.	.	4B	-ro è il	1g	-ter-	.	.
.	.	2c	.	8e	ciel	.	.	8ccL	.
.	.	.	.	8g	e-	.	.	8bJ	.
.	.	.	.	2d	-ter-	.	.	2dd	.
.	.	4B	.	.	.	.	.	.	.
=23	=23	=23	=23	=23	=23	=23	=23	=23	=23
2C	-no,	2c	-no,	2c	-no,	8g	-no,	4.ee	-no,
.	.	.	.	.	.	8a	E	.	.
.	.	.	.	.	.	8g	quel	.	.
.	.	.	.	.	.	8e	ch'è	8ee	E
2r	.	8r	.	2r	.	4f	bel	8dd	quel
.	.	8d	E	.	.	.	.	8b	ch'è
.	.	8c	quel	.	.	8r	.	4cc	bel
.	.	8A	ch'è	.	.	8c	è	.	.
2r	.	4B	bel	2r	.	8d	bel-	8r	.
.	.	.	.	.	.	8e	-lo	8g	è
.	.	8r	.	.	.	8f	sol	8a	bel-
.	.	8G	è	.	.	8d	da	8b	-lo
4r	.	8A	bel-	8r	.	4f	lu-	8cc	sol
.	.	8B	-lo	8d	E	.	.	8dd	da
4A	E	4c	sol	8c	quel	4e	-i,	[4ee	lu-
.	.	.	.	8A	ch'è	.	.	.	.
=24	=24	=24	=24	=24	=24	=24	=24	=24	=24
8G	quel	4B	da	8B	bel	8r	.	4ee]	.
8E	ch'è	.	.	8G	è	8g	E	.	.
4F	bel	2A	lu-	8A	bel-	8f	quel	8dd	-i,
.	.	.	.	8B	-lo	8d	ch'è	8dd	E
8r	.	.	.	4c	sol	4e	bel	8cc	quel
8C	è	.	.	.	.	.	.	8a	ch'è
8D	bel-	4G	-i,	4B	da	8r	.	8b	bel
8E	-lo	.	.	.	.	8g	è	8cc	è
2.F	sol	8r	.	2A	lu-	8a	bel-	8dd	bel-
.	.	8G	è	.	.	8b	-lo	8ee	-lo
.	.	8A	bel-	.	.	2cc	sol	2ff	sol
.	.	8B	-lo	.	.	.	.	.	.
.	.	4.c	sol	4G	-i,	.	.	.	.
4E	da	.	.	4g	da	4cc	da	4gg	da
.	.	8c	da	.	.	.	.	.	.
=25	=25	=25	=25	=25	=25	=25	=25	=25	=25
2G	lu-	2d	lu-	2g	lu-	2b	lu-	2dd	lu-
2G	-i:	2d	-i:	2g	-i,	2b	-i:	2dd	-i:
4r	.	4r	.	4r	.	4r	.	4r	.
4A	Ei	4e	Ei	4c	Ei	4a	Ei	4cc	Ei
4B	bel-	4d	bel-	4d	bel-	4g	bel-	4b	bel-
4E	-lo è	4g	-lo è	4e	-lo è	4g	-lo è	4cc	-lo è
=26	=26	=26	=26	=26	=26	=26	=26	=26	=26
2D	sol	4.f#X	sol	2A	sol	2a	sol	2dd	sol
.	.	8f#i	per-	.	.	.	.	.	.
8r	.	8g	-ché	2r	.	4r	.	4r	.
8B	per-	8d	so-	.	.	.	.	.	.
8c	-ché	8e	-mi-	.	.	4a	per-	8r	.
8F	so-	8fnXi	-glia a	.	.	.	.	8dd	per-
4A	-mi-	2c	vu-	8r	.	8cc	-ché	8ff	-ché
.	.	.	.	8A	per-	8f	so-	8cc	so-
4E	-glia a	.	.	8c	-ché	2g	-mi-	4ee	-mi-
.	.	.	.	8G	so-	.	.	.	.
2D	vu-	[2d	-i,	4A	-mi-	.	.	4ff	-glia a
.	.	.	.	4B-X	-glia a	4f	-glia a	[4dd	vu-
=27	=27	=27	=27	=27	=27	=27	=27	=27	=27
2D	-i,	1d]	.	2A	vu-	2f#X	vu-	8dd]L	.
.	.	.	.	.	.	.	.	16cc	.
.	.	.	.	.	.	.	.	16bJ	.
.	.	.	.	.	.	.	.	4a	.
2r	.	.	.	2G	-i,	2g	-i,	4.b	-i,
.	.	.	.	.	.	.	.	8dd	E
2r	.	1r	.	2r	.	8r	.	8cc	quel
.	.	.	.	.	.	8a	E	8a	ch'è
.	.	.	.	.	.	8g	quel	8b	bel
.	.	.	.	.	.	8e	ch'è	8g	è
4r	.	.	.	8r	.	8fnXi	bel	8a	bel-
.	.	.	.	8d	E	8d	è	8b	-lo
4A	E	.	.	8c	quel	8e	bel-	4cc	sol
.	.	.	.	8A	ch'è	8f	-lo	.	.
=28	=28	=28	=28	=28	=28	=28	=28	=28	=28
8G	quel	4r	.	8B	bel	4g	sol	4b	da
8E	ch'è	.	.	8G	è	.	.	.	.
8F	bel	4d	E	8A	bel-	4f	da	4a	lu-
8D	è	.	.	8B	-lo	.	.	.	.
8E	bel-	8c	quel	4c	sol	4e	lu-	4ee	-i,
8F	-lo	8A	ch'è	.	.	.	.	.	.
4G	sol	8B	bel	4B	da	8d	-i,	8r	.
.	.	8G	è	.	.	8d	da	8b	è
4F#X	da	8A	bel-	2A	lu-	2a	lu-	8dd	bel-
.	.	8B	-lo	.	.	.	.	8ee	-lo
2A	lu-	8c	sol	.	.	.	.	8ff	sol
.	.	8d	da	.	.	.	.	8gg	da
.	.	4c#X	lu-	4e	-i:	4a	-i:	4ee	lu-
8A	-i:	8c#X	-i:	4f	Ei	4a	Ei	8ee	-i:
8D	Ei	8d	Ei	.	.	.	.	8dd	Ei
=29	=29	=29	=29	=29	=29	=29	=29	=29	=29
4A	bel-	4.cnXi	bel-	4.e	bel-	4.a	bel-	4ee	bel-
4F	-lo è	.	.	.	.	.	.	4a	-lo è
.	.	8A	-lo è	8d	-lo è	8dd	-lo è	.	.
2E	sol	2B	sol	2e	sol	4.b	sol	2g#X	sol
.	.	.	.	.	.	8b	per-	.	.
1r	.	2r	.	2r	.	8cc	-ché	8r	.
.	.	.	.	.	.	8g	so-	8ee	per-
.	.	.	.	.	.	2b	-mi-	8ggnXi	-ché
.	.	.	.	.	.	.	.	8dd	so-
.	.	4r	.	8r	.	.	.	4.ee	-mi-
.	.	.	.	8e	per-	.	.	.	.
.	.	8r	.	8g	-ché	4e	-glia,	.	.
.	.	8A	per-	8c	so-	.	.	8ff	-glia a
=30	=30	=30	=30	=30	=30	=30	=30	=30	=30
8r	.	8c	-ché	2.e	-mi-	2r	.	2gg	vu-
8B	per-	8G	so-	.	.	.	.	.	.
8c	-ché	8A	-mi-	.	.	.	.	.	.
8G	so-	8B	-glia a	.	.	.	.	.	.
4A	-mi-	2.c	vu-	.	.	8r	.	2ee	.
.	.	.	.	.	.	8a	per-	.	.
4E	-glia a	.	.	4g	-glia a	8cc	-ché	.	.
.	.	.	.	.	.	8g	so-	.	.
1G	vu-	.	.	1d	vu-	4b	-mi-	1dd	.
.	.	8BL	.	.	.	4g	-glia a	.	.
.	.	8AJ	.	.	.	.	.	.	.
.	.	2B	.	.	.	2g	vu-	.	.
=31	=31	=31	=31	=31	=31	=31	=31	=31	=31
0Cl	-i.	0cl	-i.	0el	-i.	0gl	-i.	0ccl	-i.
==	==	==	==	==	==	==	==	==	==
*-	*-	*-	*-	*-	*-	*-	*-	*-	*-
!!!system-decoration: [*]
!!!RDF**kern: i = editorial accidental
!!!RDF**kern: l = terminal long
!!!ENC: Emiliano Ricciardi
!!!END: 2017/11
!!!EED: Deutsch, Catherine
!!!EEV: 2018/10/28
!!!YEC: Copyright 2018 Emiliano Ricciardi, All Rights Reserved
!!!ONB: Translated from MusicXML on 2018/10/28 and edited by Craig Stuart Sapp
!!@@BEGIN:	VERSEDATA
!!@SOLERTI:	614
!!@CATALOGNUM:	Trm0614
!!@LAST_MODIFIED: 2020/07/12
!!@TITLE:		Al vostro dolce azzurro
!!@GENRE:		madrigale
!!@MANUSRC:	Amz, Ar, Brn, C, E<sub>1</sub>, I<sub>4</sub>, M<sub>4</sub>, N<sub>13</sub>, N<sub>15</sub>, P<sub>4</sub>, V<sub>2</sub>, V<sub>8</sub>, V<sub>13/E1</sub>, W
!!@PRINTSRC:	8, 9, 11, 12, 13, 15, 20, 24, 29, 33, 67, 93, 141, 145, 166, 169
!!@@BEGIN:	VERSES
!!@ABOUTIT:	Loda gli occhi azzurri de la signora Livia Pica, dama nobilissima e principalissima ne la corte di Francia.
!!@ABOUTEN:	He preaises the blue eyes of lady Livia Pica, most noble and elevated lady in the court of France.
!!@EDITOR:	Solerti, Angelo
!!@EDITION_TITLE: Le Rime di Torquato Tasso
!!@EDITION_LOC:	Bologna
!!@EDITION_PUB:	Romagnoli-Dall’Acqua
!!@EDITION_DATE:  1898-1902
!!@EDITION_VOL:	3
!!@EDITION_PAGE: 155
!!@TRANSLATOR:	Emiliano Ricciardi and Amyrose McCue Gill
!!@VERSE:
!!	Al vostro dolce azzurro
!!	Ceda, o luci serene,
!!	Qual più bel negro Italia in pregio tiene.
!!	Occhi, cielo d'Amore,
!!	Sole di questo core,
!!	Sono gli altri appo voi notte ed inferno.
!!	Azzurro è 'l cielo eterno
!!	E quel ch'è bello il bello ha sol da lui:
!!	Ei bello è sol perch'assomiglia a vui.
!!@TVERSE:
!!	To your sweet azure
!!	Cede, o clear eyes,
!!	That darkness which Italy admires as more beautiful.
!!	Eyes, heaven of love,
!!	Sun of this heart,
!!	The other eyes are, next to you, night and hell.
!!	Azure is eternal heaven
!!	And what is beautiful derives beauty only from it:
!!	It is beautiful only because he resembles you.
!!@@END:		VERSES
!!@OTHER_CRIT_ED:   Torquato Tasso, <i>Rime d’amore (secondo il codice
!!		Chigiano L VIII 302)</i>, eds. Franco Gavazzeni and
!!		Vercingetorige Martignone, vol. 4 of <i>Edizione
!!		Nazionale delle opere di Torquato Tasso</i>
!!		(Alessandria: Edizioni Dell’Orso, 2004).
!!@ATTRIBUTION_ABOUT:	Secure
!!		<br>
!!		Among other authoritative sources (see Literary
!!		Sources), this poem appears in the autograph Chigiano
!!		L.VIII.302 (Biblioteca Vaticana, Rome), compiled
!!		around 1584&ndash;85.
!!@DATING:	1571-72?
!!		<br>
!!		According to Solerti, Tasso most likely composed this poem during his visit to France in 1571-72.
!!@DEDICATEE:	Pica, Livia
!!@COMMENTARY:
!!@@END:		VERSEDATA
!!@@BEGIN:	SETTING
!!@CATALOGNUM:	Trm0614j
!!@RIMETITLE:	Al vostro dolce azzurro
!!@SOLERTI:	614
!!@COMPOSER:	Genvino, Francesco
!!@PRINCEPSTITLE:	Libro secondo di madrigali a cinque voci
!!@PRINCEPSLOC:	Napoli
!!@NORMLOC:	Naples
!!@NORMPUB:	Sottile
!!@NORMPUBSHORT:	Sottile
!!@PRINCEPSPUB:	Sottile
!!@PRINCEPSYEAR:	1605
!!@PRINCEPSRISM:	G 1586
!!@REPRINTS:	
!!@OVOICES:	5
!!@EXTANTVOICES:	5
!!@PARTBOOKS:	
!!@EXTPARTBOOKS:	
!!@OCLEFS:	G2,C2,C3,C3,F4
!!@OMENSURATION:	C
!!@OKEYSIG:	-
!!@FINAL:	C
!!@TIMPEDITOR:	Deutsch, Catherine
!!@NOTE:		
!!@@END:		SETTING
